public/images/icons/checkbox-tick.svg

<svg width="10" height="8" viewBox="0 0 10 8" fill="none" xmlns="http://www.w3.org/2000/svg">
<path d="M9.66415 2.11985L4.56146 7.63634C4.34449 7.8709 4.05608 8 3.74928 8C3.44247 8 3.15406 7.8709 2.93709 7.63634L0.336467 4.82481C0.119501 4.59025 0 4.27845 0 3.94677C0 3.61499 0.119501 3.30319 0.336467 3.06863C0.553349 2.83407 0.841761 2.70487 1.14865 2.70487C1.45545 2.70487 1.74395 2.83407 1.96083 3.06872L3.74919 5.00202L8.03961 0.363661C8.25658 0.1291 8.54499 0 8.85179 0C9.1586 0 9.44701 0.1291 9.66398 0.363661C10.112 0.847993 10.112 1.6357 9.66415 2.11985Z" fill="white"/>
</svg>

<svg width="10" height="8" fill="none" xmlns="http://www.w3.org/2000/svg"><path d="M9.664 2.12 4.561 7.636A1.1 1.1 0 0 1 3.75 8a1.1 1.1 0 0 1-.812-.364l-2.6-2.811A1.286 1.286 0 0 1 0 3.947c0-.332.12-.644.336-.878a1.1 1.1 0 0 1 .813-.364c.306 0 .595.13.812.364l1.788 1.933L8.04.364A1.1 1.1 0 0 1 8.853 0c.307 0 .595.13.812.364a1.316 1.316 0 0 1 0 1.756Z" fill="#fff"/></svg>
